X:1
T:Ave maris stella
T:Hans Leo Haßler (1564 - 1612)
T:
T:            A- ve  ma- ris   stel-  la,_____   De-  i  ma-  ter  al-  ma,       atque semper vir- go,         fe- lix cae- li   por- ta.
T:Edition: J. Kelecom note values halved - all slurs editorial
T:Ave maris stella
T:Hymnus in honore BMV
%%score [ 1 2 3 4 ]
L:1/8
Q:1/4=90
M:2/2
K:Bb
V:1 treble nm="Soprano"
V:2 treble nm="Alto"
V:3 treble-8 nm="Tenor"
V:4 bass nm="Bass"
V:1
 F4 (c4 | d4) B4 | (c4 d4) | e4 f4 | e2 d3 c c2- | c=B/A/ B2 c4 | d6 c2 | B2 A2 G4 | ^F4 G3 A | %9
w: 2. Su- mens|_ il-|lud _|'A- *||* * * * ve',|Ga- bri-|e- lis o-|re, fun- *|
 =B2 c2 d2 e2 | fedc =B2 c2- | c2 =B2 c4 | z8 | f6 e2 | d2 c2 B2 A2 | G2 F2 G4 | A4 z4 | z4 f4- | %18
w: * da nos in|pa- * * * * *|* * ce,||mu- tans|E- vae no- *||men,|mu-|
 f2 e2 d2 c2 | B2 A2 G2 F2 | G4 A4 || F4 (c4 | d4) B4 | (c4 d4) | e4 f4 | e2 d3 c c2- | %26
w: * tans E- vae|no- * * *|* men.|4. Mon- stra|_ te es-|se _|ma- *||
 c=B/A/ B2 c4 | d6 c2 | B2 A2 G4 | ^F4 G3 A | =B2 c2 d2 e2 | fedc =B2 c2- | c2 =B2 c4 | z8 | %34
w: * * * * trem,|su- mat|per te pre-|cem qui _|_ pro no- bis|na- * * * * *|* * tus||
 f6 e2 | d2 c2 B2 A2 | G2 F2 G4 | A4 z4 | z4 f4- | f2 e2 d2 c2 | B2 A2 G2 F2 | G4 A4 || %42
w: tu- lit|es- se tu- *||us,|tu-|* lit es- se|tu- * * *|* us.|
"^Vir- go  sin- gu- la- ris,           in-  ter  om-nes   mi- tis,      nos culpis  so- lu- tos,        mi-tes   fac  et  cas- tos." F4 (c4 | %43
w: 6. Vi- tam|
 d4) B4 | (c4 d4) | e4 f4 | e2 d3 c c2- | c=B/A/ B2 c4 | d6 c2 | B2 A2 G4 | ^F4 G3 A | %51
w: _ prae-|sta _|pu- *||* * * * ram,|i- ter|pa- ra tu-|tum, ut _|
 =B2 c2 d2 e2 | fedc =B2 c2- | c2 =B2 c4 | z8 | f6 e2 | d2 c2 B2 A2 | G2 F2 G4 | A4 z4 | z4 f4- | %60
w: _ vi- den- tes|Je- * * * * *|* * sum||sem- per|col- lae- te- *||mur,|sem-|
 f2 e2 d2 c2 | B2 A2 G2 F2 | G4 A4 |] %63
w: * per col- lae-|te- * * *|* mur.|
V:2
 C3 B, CDEC | F6 G2- | G2 _A3 G/A/ B2 | G4 FE D2 | G4 G4- | G4 =E4 | z2 F4 F2 | DB, D3 C/B,/ C2 | %8
w: 2. Su- * * * * *||* mens il- * *||lud 'A-|* ve',|Ga- bri-|e- lis o- * * *|
 D4 D4 | G4 B4 | _A4 G4- | G4 G4 | c6 B2 | A2 G2 F4- | F2 E2 DEFD | =E2 F4 E2 | F4 c4- | %17
w: re, fun-|da nos|in pa-|* ce,|mu- tans|E- vae no-|* men, E- * * *|vae no- *|men, mu-|
 c2 B2 A2 G2 | F6 E2 | D=EFD E2 F2- | F2 =E2 F4 || C3 B, CDEC | F6 G2- | G2 _A3 G/A/ B2 | %24
w: * tans E- vae|no- men,|E- * * * vae no-|* * men.|4. Mon- * * * * *||* stra te es- * *|
 G4 FE D2 | G4 G4- | G4 =E4 | z2 F4 F2 | DB, D3 C/B,/ C2 | D4 D4 | G4 B4 | _A4 G4- | G4 G4 | %33
w: |se ma-|* trem,|su- mat|per te pre- * * *|cem qui|pro no-|bis na-|* tus|
 c6 B2 | A2 G2 F4- | F2 E2 DEFD | =E2 F4 E2 | F4 c4- | c2 B2 A2 G2 | F6 E2 | D=EFD E2 F2- | %41
w: tu- lit|es- se tu-|* us, es- * * *|se tu- *|us, tu-|* lit es- se|tu- us,|es- * * * se tu-|
 F2 =E2 F4 || C3 B, CDEC | F6 G2- | G2 _A3 G/A/ B2 | G4 FE D2 | G4 G4- | G4 =E4 | z2 F4 F2 | %49
w: * * us.|6. Vi- * * * * *||* tam prae- * *||sta pu-|* ram,|i- ter|
 DB, D3 C/B,/ C2 | D4 D4 | G4 B4 | _A4 G4- | G4 G4 | c6 B2 | A2 G2 F4- | F2 E2 DEFD | =E2 F4 E2 | %58
w: pa- ra tu- * * *|tum, ut|vi- den-|tes Je-|* sum|sem- per|col- lae- te-|* mur, col- * * *|lae- te- *|
 F4 c4- | c2 B2 A2 G2 | F6 E2 | D=EFD E2 F2- | F2 =E2 F4 |] %63
w: mur, sem-|* per col- lae-|te- mur,|col- * * * lae- te-|* * mur.|
V:3
 A6 G2 | AFBc d2 e2- | ed c2 fe d2- | dc c4 =B2 | c2 d2 e4 | d4 c2 GA | Bcde f2 F2 | G2 A2 BA G2 | %8
w: 2. Su- mens|il- * * * * lud|_ _ _ 'A- * *||ve', il- lud|'A- ve', Ga- *|* * * * * bri-|e- lis o- * *|
 A4 B3 c | d2 e2 f2 g2 | cd/e/ f3 eed/c/ | d4 e2 c2- | c2 B2 A2 G2 | F4 A4 | B6 F2 | c2 A2 G4 | %16
w: re, fun- *|* da nos in|pa- * * * * * * *|* ce, mu-|* tans E- vae|no- men,|mu- tans|E- vae no-|
 F2 c4 B2 | A2 G2 F4 | A4 B4- | B2 F2 c2 A2 | G4 F4 || A6 G2 | AFBc d2 e2- | ed c2 fe d2- | %24
w: men, mu- tans|E- vae no-|men, mu-|* tans E- vae|no- men.|4. Mon- stra|te es- * * * * se|_ _ _ ma- * *|
 dc c4 =B2 | c2 d2 e4 | d4 c2 GA | Bcde f2 F2 | G2 A2 BA G2 | A4 B3 c | d2 e2 f2 g2 | %31
w: |tram, e es- se|ma- trem, su- *|* * * * * mat|per te pre- * *|cem qui _|_ pro no- bis|
 cd/e/ f3 eed/c/ | d4 e2 c2- | c2 B2 A2 G2 | F4 A4 | B6 F2 | c2 A2 G4 | F2 c4 B2 | A2 G2 F4 | %39
w: na- * * * * * * *|* tus tu-|* lit es- se|tu- us,|tu- lit|es- se tu-|us, tu- lit|es- se tu-|
 A4 B4- | B2 F2 c2 A2 | G4 F4 || A6 G2 | AFBc d2 e2- | ed c2 fe d2- | dc c4 =B2 | c2 d2 e4 | %47
w: us, tu-|* lit es- se|tu- us.|6. Vi- tam|prae- * * * * sta|_ _ _ pu- * *||ram, prae- sta|
 d4 c2 GA | Bcde f2 F2 | G2 A2 BA G2 | A4 B3 c | d2 e2 f2 g2 | cd/e/ f3 eed/c/ | d4 e2 c2- | %54
w: pu- ram, i- *|* * * * * ter|pa- ra tu- * *|tum, ut _|_ vi- den- tes|Je- * * * * * * *|* sum sem-|
 c2 B2 A2 G2 | F4 A4 | B6 F2 | c2 A2 G4 | F2 c4 B2 | A2 G2 F4 | A4 B4- | B2 F2 c2 A2 | G4 F4 |] %63
w: * per col- lae-|te- mur,|sem- per|col- lae- te-|mur, sem- per|col- lae- te-|mur, sem-|* per col- lae-|te- mur.|
V:4
 F,6 E,2 | D,2 B,,2 B,A,G,F, | E,2 F,4 G,2 | E,2 D,C, D,4 | C,2 =B,,2 C,D,E,F, | G,4 C,4 | %6
w: 2. Su- mens|il- lud 'A- * * *|* ve', su-|mens _ _ il-|lud 'A- * * * *|* ve',|
 z2 B,4 A,2 | G,2 F,2 E,4 | D,4 G,4- | G,2 C2 B,>A, G,2 | F,4 G,4- | G,4 C,4 | z4 F,4- | %13
w: Ga- bri-|e- lis o-|re, fun-|* da nos _ _|in pa-|* ce,|mu-|
 F,2 E,2 D,2 C,2 | B,,4 B,,4 | C,8 | F,4 z4 | F,6 E,2 | D,2 C,2 B,,4- | B,,4 C,4- | C,4 F,4 || %21
w: * tans E- *|* vae|no-|men,|tans E-|vae no- *||* men.|
 F,6 E,2 | D,2 B,,2 B,A,G,F, | E,2 F,4 G,2 | E,2 D,C, D,4 | C,2 =B,,2 C,D,E,F, | G,4 C,4 | %27
w: 4. Mon- stra|te es- se ma- * * *|* trem, mon-|stra _ _ te es-|se ma- * * * *|* trem,|
 z2 B,4 A,2 | G,2 F,2 E,4 | D,4 G,4- | G,2 C2 B,>A, G,2 | F,4 G,4- | G,4 C,4 | z4 F,4- | %34
w: su- mat|per te pre-|cem qui|_ pro no- * *|bis na-|* tus|tu-|
 F,2 E,2 D,2 C,2 | B,,4 B,,4 | %36
w: * lit es- *|* se|
"^" C,8 | %37
w: tu-|
 F,4 z4 | F,6 E,2 | D,2 C,2 B,,4- | B,,4 C,4- | C,4 F,4 || F,6 E,2 | D,2 B,,2 B,A,G,F, | %44
w: us,|tu- lit|es- se tu-||* us.|6. Vi- tam|prae- sta pu- * * *|
 E,2 F,4 G,2 | E,2 D,C, D,4 | C,2 =B,,2 C,D,E,F, | G,4 C,4 | z2 B,4 A,2 | G,2 F,2 E,4 | D,4 G,4- | %51
w: * ram, vi-|ta _ _ prae-|sta pu- * * * *|* ram,|i- ter|pa- ra tu-|tum, ut|
 G,2 C2 B,>A, G,2 | F,4 G,4- | G,4 C,4 | z4 F,4- | F,2 E,2 D,2 C,2 | B,,4 B,,4 | C,8 | F,4 z4 | %59
w: _ vi- den- * *|tes Je-|* sum|sem-|* per col- *|* lae-|te-|mur,|
 F,6 E,2 | D,2 C,2 B,,4- | B,,4 C,4- | C,4 F,4 |] %63
w: sem- per|col- lae- te-||* mur.|

